X:1
T:Title
%%score { ( 1 3 ) | 2 }
L:1/8
Q:1/4=110
M:4/4
K:Bb
V:1 treble nm="Grand Piano"
V:3 treble 
V:2 bass 
V:1
 B3 A G2 D2 | F2 E2 D4 | [DB]3 [Ec] [Fd]2 [DB]2 | [Ec]4 [B,DB]4 | B3 A G2 D2 | F2 E2 D4 | %6
w: J.~Lincoln~Hall * * *||||||
 [DB]3 [Ec] [Fd]2 [DB]2 | [Ec]4 [B,DB]4 | [EA]2 [A,EA]2 [A,EG]2 [A,EF]2 | z4 [Fd]4 | %10
w: ||||
 [Ec]2 [Ec]2 [Fd]2 [Ge]2 | [Fd]2 [B,DB]2 B,2 B,2 | [Fd]2 [Fd]2 [Ac]2 [_Ad]2 | [Gf]2 [Ge]2 [EG]4 | %14
w: ||||
 F3 B c2 d2 | c4 [DB]4 | z2 B,2 F2- [DF]2 | G4 B4 | A3 G F2 E2 | G4[K:bass] F4 | F4 B4 | d4 B4 | %22
w: ||||||||
 [=Ed]3 [Ec] [EB]2 [EG]2 | c4 F4 | [EA]2 [A,EA]2 [A,EG]2 [A,EF]2 | z4 [Fd]4 | %26
w: ||||
 [Ec]2 [Ec]2 [Fd]2 [Ge]2 | [Fd]2 [B,DB]2 B,2 B,2 | [Fd]2 [Fd]2 [Ac]2 [_Ad]2 | [Gf]2 [Ge]2 [EG]4 | %30
w: ||||
 F3 B c2 d2 |[M:8/4] c4 [DB]4 z8 |] %32
w: ||
V:2
 B,3 A, G,2 D,2 | [F,A,C]2 [F,A,C]2 [B,,F,B,]4 | [B,,F,]3 [B,,F,] [B,,B,]2 [B,,F,]2 | %3
 [F,A,]4 B,,4 | B,3 A, G,2 D,2 | [F,A,C]2 [F,A,C]2 [B,,F,B,]4 | %6
 [B,,F,]3 [B,,F,] [B,,B,]2 [B,,F,]2 | [F,A,]4 B,,4 | F,,2 F,2 F,2 F,2 | B,,2 [F,B,]2 [F,B,]2 F,2 | %10
 F,,2 [F,A,]2 [F,A,]2 [F,A,]2 | B,,2 F,2 F,2 F,2 | B,,2 [F,B,]2 [F,B,]2 [F,B,]2 | E,2 B,2 B,2 B,2 | %14
 [F,B,D]3 [F,B,D] [F,B,E]2 [F,B,F]2 | [F,A,E]4 [B,,B,]4 | [B,,F,B,]2 [B,,F,]2 [B,,B,]2 [B,,B,]2 | %17
 [E,B,E]2 [E,B,]2 [E,G,E]2 [E,G,]2 | [F,CE]3 [F,B,E] [F,A,C]2 [F,A,C]2 | [B,,=E,]2 B,,2 B,,2 B,,2 | %20
 B,,2 B,,2 [B,,F,]2 [B,,F,]2 | [B,,B,]2 [B,,B,]2 [B,,B,]2 [B,,B,]2 | %22
 [C,G,]3 [C,G,] [C,C]2 [C,B,]2 | [F,A,E]2 [F,A,]2 [F,A,E]2 [F,A,]2 | F,,2 F,2 F,2 F,2 | %25
 B,,2 [F,B,]2 [F,B,]2 F,2 | F,,2 [F,A,]2 [F,A,]2 [F,A,]2 | B,,2 F,2 F,2 F,2 | %28
 B,,2 [F,B,]2 [F,B,]2 [F,B,]2 | E,2 B,2 B,2 B,2 | [F,B,D]3 [F,B,D] [F,B,E]2 [F,B,F]2 | %31
[M:8/4] [F,A,E]4 [B,,B,]4 z8 |] %32
V:3
 x8 | x8 | x8 | x8 | x8 | x8 | x8 | x8 | x8 | [DB]2 [Ec]2 z2 B,2 | x8 | z4 [DF]4 | x8 | x8 | x8 | %15
 x8 | D4 D2 z2 | z2 E2 z2 E2 | x8 | _D2[K:bass] [=E,D]2 [F,=D]2 [F,D]2 | [B,D]2 [B,D]2 D2 D2 | %21
 F2 F2 D2 D2 | x8 | z2 E2 z2 E2 | x8 | [DB]2 [Ec]2 z2 B,2 | x8 | z4 [DF]4 | x8 | x8 | x8 | %31
[M:8/4] x16 |] %32

